src/r/00a0-024f_1e00-1eff_latin/0111_d-stroke.svg

<?xml version="1.0" encoding="UTF-8" standalone="no"?>
<!-- Created with Inkscape (http://www.inkscape.org/) -->

<svg
   xmlns:dc="http://purl.org/dc/elements/1.1/"
   xmlns:cc="http://creativecommons.org/ns#"
   xmlns:rdf="http://www.w3.org/1999/02/22-rdf-syntax-ns#"
   xmlns:svg="http://www.w3.org/2000/svg"
   xmlns="http://www.w3.org/2000/svg"
   version="1.1"
   width="1024"
   height="2048"
   id="svg3355">
  <defs
     id="defs3357" />
  <metadata
     id="metadata3360">
    <rdf:RDF>
      <cc:Work
         rdf:about="">
        <dc:format>image/svg+xml</dc:format>
        <dc:type
           rdf:resource="http://purl.org/dc/dcmitype/StillImage" />
        <dc:title></dc:title>
      </cc:Work>
    </rdf:RDF>
  </metadata>
  <g
     transform="translate(0,995.63782)"
     id="layer1" />
  <path
     d="m 725.99996,256.00001 0,177 -277.99996,0 0,158 277.99996,0 0,177 -169.99996,0 c -274.0044,0 -444,146.9965 -444,383.99999 0,237.0035 129.99702,384 340,384 l 443.99996,0 0,-944.99999 128.00004,0 0,-158 -128.00004,0 0,-177 z m -169.99996,669 169.99996,0 0,453.99999 L 452,1379 c -105.00323,0 -170,-86.9963 -170,-227 0,-140.0037 104.99842,-226.99999 274,-226.99999 z"
     id="path3157-2-7-7-2-8-2-3-1-1-3-33-4-6-6"
     style="fill:#000000;fill-opacity:1;stroke:none;display:inline" />
</svg>

<?xml version="1.0" encoding="UTF-8" standalone="no"?>
<svg
   xmlns:dc="http://purl.org/dc/elements/1.1/"
   xmlns:cc="http://creativecommons.org/ns#"
   xmlns:rdf="http://www.w3.org/1999/02/22-rdf-syntax-ns#"
   xmlns:svg="http://www.w3.org/2000/svg"
   xmlns="http://www.w3.org/2000/svg"
   version="1.1"
   width="1024"
   height="2048"
   id="svg3355">
  <defs
     id="defs3357" />
  <metadata
     id="metadata3360">
    <rdf:RDF>
      <cc:Work
         rdf:about="">
        <dc:format>image/svg+xml</dc:format>
        <dc:type
           rdf:resource="http://purl.org/dc/dcmitype/StillImage" />
        <dc:title></dc:title>
      </cc:Work>
    </rdf:RDF>
  </metadata>
  <g
     transform="translate(0,995.63782)"
     id="layer1" />
  <path
     id="path3157-2-7-7-2-8-2-3-1-1-3-33-4-6-6"
     style="display:inline;fill:#000000;fill-opacity:1;stroke:none"
     d="M 726,256 V 433 H 448 V 591 H 726 V 768 H 556 c -274.0044,0 -444,146.99651 -444,384 0,237.0035 129.99702,384 340,384 h 188 c 192.00312,0 256,-64.0013 256,-256 V 591 h 128 V 433 H 896 V 256 Z M 556,925 h 170 v 355 c 0,61.0016 -32.98906,99 -86,99 H 452 c -105.00323,0 -170,-86.9963 -170,-227 0,-140.0037 104.99842,-227 274,-227 z" />
</svg>
